svg/neutral_negative.svg

<svg width="48" height="48" viewBox="0 0 48 48" fill="none" xmlns="http://www.w3.org/2000/svg">
<path fill-rule="evenodd" clip-rule="evenodd" d="M24 4.52002C21.4419 4.52002 18.9088 5.02388 16.5453 6.00285C14.1819 6.98181 12.0345 8.41669 10.2256 10.2256C8.41669 12.0345 6.98181 14.1819 6.00285 16.5453C5.02388 18.9088 4.52002 21.4419 4.52002 24C4.52002 26.5582 5.02388 29.0913 6.00285 31.4547C6.98181 33.8181 8.41669 35.9656 10.2256 37.7745C12.0345 39.5833 14.1819 41.0182 16.5453 41.9972C18.9088 42.9762 21.4419 43.48 24 43.48C29.1664 43.48 34.1213 41.4277 37.7745 37.7745C41.4277 34.1213 43.48 29.1664 43.48 24C43.48 18.8336 41.4277 13.8788 37.7745 10.2256C34.1213 6.57237 29.1664 4.52002 24 4.52002ZM17.15 13.88C19.1 13.88 20.68 15.98 20.68 18.57C20.68 21.15 19.1 23.25 17.15 23.25C15.19 23.25 13.61 21.15 13.61 18.57C13.61 15.98 15.19 13.88 17.15 13.88ZM30.05 13.88C32 13.88 33.59 15.98 33.59 18.57C33.59 21.15 32 23.25 30.05 23.25C28.1 23.25 26.51 21.15 26.51 18.57C26.51 15.98 28.1 13.88 30.05 13.88ZM16.19 32.36H31.8V32.87H16.2V32.37L16.19 32.36Z" fill="#333333"/>
</svg>

<?xml version="1.0" encoding="UTF-8" standalone="no"?>
<!-- Created with Inkscape (http://www.inkscape.org/) -->
<svg id="svg8" xmlns:rdf="http://www.w3.org/1999/02/22-rdf-syntax-ns#" xmlns="http://www.w3.org/2000/svg" xmlns:osb="http://www.openswatchbook.org/uri/2009/osb" height="48" width="48" version="1.1" xmlns:cc="http://creativecommons.org/ns#" viewBox="0 0 12.7 12.7" xmlns:dc="http://purl.org/dc/elements/1.1/">
 <title id="title4753">UIO-icon</title>
 <metadata id="metadata5">
  <rdf:RDF>
   <cc:Work rdf:about="">
    <dc:format>image/svg+xml</dc:format>
    <dc:type rdf:resource="http://purl.org/dc/dcmitype/StillImage"/>
    <dc:title>UIO-icon</dc:title>
    <dc:creator>
     <cc:Agent>
      <dc:title>Joaquín Urbano</dc:title>
     </cc:Agent>
    </dc:creator>
    <dc:rights>
     <cc:Agent>
      <dc:title>GPL</dc:title>
     </cc:Agent>
    </dc:rights>
   </cc:Work>
  </rdf:RDF>
 </metadata>
 <g id="layer1" fill="#333" transform="translate(0,-284.3)">
  <path id="rect1046" d="m24 4.5176c-10.76 0-19.482 8.7224-19.482 19.482-0.0004 10.76 8.722 19.482 19.482 19.482s19.482-8.722 19.482-19.482-8.722-19.482-19.482-19.482zm-6.854 9.3654c1.9529-0.001153 3.5367 2.0959 3.5371 4.6836 0.00040247 2.5884-1.5836 4.6867-3.5371 4.6855-1.9528-0.00027628-3.5356-2.0981-3.5352-4.6855 0.0004119-2.5866 1.583-4.6833 3.5352-4.6836zm12.904 0c1.9529-0.001153 3.5367 2.0959 3.5371 4.6836 0.00040247 2.5884-1.5836 4.6867-3.5371 4.6855-1.9528-0.00027629-3.5356-2.0981-3.5352-4.6855 0.0004119-2.5866 1.583-4.6833 3.5352-4.6836zm-13.862 18.478h15.625v0.514h-15.625z" fill-rule="evenodd" transform="matrix(.26458 0 0 .26458 0 284.3)"/>
 </g>
</svg>
